X: 41598
T: Up Da Stroods
R: reel
M: 4/4
K: Bminor
|:B2 B2 dBBA|BA B2 dBAF|ABdB ABde|faef dBAF|
B2 B2 dBBA|BA B2 dBAF|ABdB ABde|faef dBAF:|
|:D2 ag fede|f2 af f2 af|f^gag fede|faef dBAF|
D2 ag fede|f2 af f2 af|f^gag fede|faef dBAF:|

